contributed-vectors/wall_kickers.svg

<svg xmlns="http://www.w3.org/2000/svg" viewBox="0 0 192 192"><rect width="128" height="176" x="32" y="8" rx="10" style="fill:#9abeff;stroke:none;opacity:1;stroke-linecap:round;stroke-linejoin:round;isolation:isolate"/><path d="M56 8h12v176H56z" style="opacity:1;vector-effect:none;fill:#ba6561;fill-opacity:1;fill-rule:evenodd;stroke:none;paint-order:stroke fill markers"/><path d="M42 8c-5.54 0-10 4.46-10 10v156c0 5.54 4.46 10 10 10h22V8H42z" style="opacity:1;vector-effect:none;fill:#ff837d;fill-opacity:1;fill-rule:evenodd;stroke:none;stroke-width:2.82842708;paint-order:stroke fill markers"/><path d="M52 8v8H32.2c-.131.646-.2 1.314-.2 2v2h8v8h-8v4h20v8H32v4h8v8h-8v4h20v8H32v4h8v8h-8v4h20v8H32v4h8v8h-8v4h20v8H32v4h8v8h-8v4h20v8H32v4h8v8h-8v4h20v8H32v4h8v8h-8v2c0 .686.069 1.354.2 2H52v8h4v-8h8v-4H44v-8h20v-4h-8v-8h8v-4H44v-8h20v-4h-8v-8h8v-4H44v-8h20v-4h-8v-8h8v-4H44v-8h20v-4h-8v-8h8v-4H44v-8h20v-4h-8v-8h8v-4H44v-8h20v-4h-8v-8h8v-4H44v-8h20v-4h-8V8h-4z" style="opacity:1;vector-effect:none;fill:#ba6561;fill-opacity:1;fill-rule:evenodd;stroke:none;paint-order:stroke fill markers"/><path d="M88 136v8h8v4h4v4h4v4h20v-4h4v-4h20v4h4v4h8v-12h-4v-4h-4v-4h-28v4h-4v4h-12v-4h-8v-4z" style="opacity:1;vector-effect:none;fill:#8e6f60;fill-opacity:1;fill-rule:evenodd;stroke:none;paint-order:stroke fill markers"/><path d="M92 44v4h-4v12h4v4h-8v-4H72v4h-4v16h4v4h8v4H68v52h12v-4h4v4h20v-4h8v-4h8v-4h8v-4h4v8h4v4h4v4h16v-4h4v-20h-4v-4h8v-4h4v-4h4V84h-4v-4h-4V64h-4v-4h4V48h-4v-4h-12v4h-8v-4h-28v4h-8v-4z" style="opacity:1;vector-effect:none;fill:#56595b;fill-opacity:1;fill-rule:evenodd;stroke:none;paint-order:stroke fill markers"/><path d="M92 48v12h4v4h-4v24h4v4h-8v16h4v4h-4v4H72v20h8v-4h4v4h20v-4h8v-4h8v-4h8v-4h4v-4h4v-4h4v4h-4v4h-4v4h4v8h4v4h16v-20h-4v-4h4v-4h8v-4h4V84h-4v-4h-4V64h-4v-4h-4v-4h-4v-4h-8v-4h-28v4h-8v-4H92zm56 4h4v4h4v4h4V48h-12v4z" style="opacity:1;vector-effect:none;fill:#8e6f60;fill-opacity:1;fill-rule:evenodd;stroke:none;paint-order:stroke fill markers"/><path d="M72 64h12v16H72z" style="opacity:1;vector-effect:none;fill:#fcecdc;fill-opacity:1;fill-rule:evenodd;stroke:none;paint-order:stroke fill markers"/><path d="M80 68h8v16h-8z" style="opacity:1;vector-effect:none;fill:#fcecdc;fill-opacity:1;fill-rule:evenodd;stroke:none;paint-order:stroke fill markers"/><path d="M84 88h4v4h-4z" style="opacity:1;vector-effect:none;fill:#8e6f60;fill-opacity:1;fill-rule:evenodd;stroke:none;paint-order:stroke fill markers"/><path d="M72 92h8v16h-8zM80 96h4v12h-4z" style="opacity:1;vector-effect:none;fill:#fcecdc;fill-opacity:1;fill-rule:evenodd;stroke:none;paint-order:stroke fill markers"/><path d="M84 68h4v16h-4zM72 68h4v4h-4z" style="opacity:1;vector-effect:none;fill:#8e6f60;fill-opacity:1;fill-rule:evenodd;stroke:none;paint-order:stroke fill markers"/><path d="M80 64h4v20h-4z" style="opacity:1;vector-effect:none;fill:#d3b69a;fill-opacity:1;fill-rule:evenodd;stroke:none;paint-order:stroke fill markers"/><path d="M76 76h8v4h-8zM80 104h4v4h-4z" style="opacity:1;vector-effect:none;fill:#d3b69a;fill-opacity:1;fill-rule:evenodd;stroke:none;paint-order:stroke fill markers"/><path d="M72 96h4v4h-4zM72 104h4v4h-4z" style="opacity:1;vector-effect:none;fill:#8e6f60;fill-opacity:1;fill-rule:evenodd;stroke:none;paint-order:stroke fill markers"/><path d="M96 52h4v8h-4z" style="opacity:1;vector-effect:none;fill:#ffb0ac;fill-opacity:1;fill-rule:evenodd;stroke:none;paint-order:stroke fill markers"/><path d="M96 52h8v4h-8zM152 52h4v4h-4z" style="opacity:1;vector-effect:none;fill:#ffb0ac;fill-opacity:1;fill-rule:evenodd;stroke:none;paint-order:stroke fill markers"/><path d="M108 52v4h-4v4h-4v4h-4v24h4v4h4v8h4v4h4v4h16V96h-8v-8h40V64h-4v-4h-12v-4h4v-4h-40zM160 80h4v4h-4z" style="opacity:1;vector-effect:none;fill:#d3b69a;fill-opacity:1;fill-rule:evenodd;stroke:none;paint-order:stroke fill markers"/><path d="M108 84v4h-4v8h4v4h4v4h4v4h48v-4h4V84h-60z" style="opacity:1;vector-effect:none;fill:#fcecdc;fill-opacity:1;fill-rule:evenodd;stroke:none;stroke-width:.96076894;paint-order:stroke fill markers"/><path d="M148 64h8v20h-8z" style="opacity:1;vector-effect:none;fill:#56595b;fill-opacity:1;fill-rule:evenodd;stroke:none;paint-order:stroke fill markers"/><path d="M148 68h4v4h-4z" style="opacity:1;vector-effect:none;fill:#fff;fill-opacity:1;fill-rule:evenodd;stroke:none;paint-order:stroke fill markers"/><path d="M140 124v4h-4v4h4v4h12v-4h4v-4h-4v-4h-12z" style="opacity:1;vector-effect:none;fill:#d3b69a;fill-opacity:1;fill-rule:evenodd;stroke:none;paint-order:stroke fill markers"/><path d="M140 128v8h16v-4h-4v-4h-12z" style="opacity:1;vector-effect:none;fill:#fcecdc;fill-opacity:1;fill-rule:evenodd;stroke:none;paint-order:stroke fill markers"/><path d="M148 132h4v4h-4z" style="opacity:1;vector-effect:none;fill:#8e6f60;fill-opacity:1;fill-rule:evenodd;stroke:none;paint-order:stroke fill markers"/><path d="M80 116v16h4v-4h4v-12h-8z" style="opacity:1;vector-effect:none;fill:#d3b69a;fill-opacity:1;fill-rule:evenodd;stroke:none;paint-order:stroke fill markers"/><path d="M72 116v20h8v-8h4v-12H72z" style="opacity:1;vector-effect:none;fill:#fcecdc;fill-opacity:1;fill-rule:evenodd;stroke:none;paint-order:stroke fill markers"/><path d="M120 64h8v20h-8z" style="opacity:1;vector-effect:none;fill:#56595b;fill-opacity:1;fill-rule:evenodd;stroke:none;paint-order:stroke fill markers"/><path d="M120 68h4v4h-4z" style="opacity:1;vector-effect:none;fill:#fff;fill-opacity:1;fill-rule:evenodd;stroke:none;paint-order:stroke fill markers"/><path d="M120 56h8v4h-8zM116 60h4v4h-4z" style="opacity:1;vector-effect:none;fill:#8e6f60;fill-opacity:1;fill-rule:evenodd;stroke:none;paint-order:stroke fill markers"/><path d="M140 84h16v8h-16z" style="opacity:1;vector-effect:none;fill:#ffb0ac;fill-opacity:1;fill-rule:evenodd;stroke:none;paint-order:stroke fill markers"/><path d="M140 88h4v4h-4zM152 88h4v4h-4z" style="opacity:1;vector-effect:none;fill:#ff837d;fill-opacity:1;fill-rule:evenodd;stroke:none;paint-order:stroke fill markers"/><path d="M124 100h44v4h-44z" style="opacity:1;vector-effect:none;fill:#8e6f60;fill-opacity:1;fill-rule:evenodd;stroke:none;paint-order:stroke fill markers"/><path d="M116 92h12v4h-12z" style="opacity:1;vector-effect:none;fill:#d3b69a;fill-opacity:1;fill-rule:evenodd;stroke:none;paint-order:stroke fill markers"/><path d="M120 92h4v8h-4zM72 120h4v4h-4zM72 128h4v4h-4z" style="opacity:1;vector-effect:none;fill:#8e6f60;fill-opacity:1;fill-rule:evenodd;stroke:none;paint-order:stroke fill markers"/><path d="M88 92v8h4v4h4v4h4v4h4v4h4v4h4v4h16v-4h4v-4h4v-4h-24v-4h-4v-4h-4v-4h-4v-4h-4v-4h-8z" style="opacity:1;vector-effect:none;fill:#ffb0ac;fill-opacity:1;fill-rule:evenodd;stroke:none;paint-order:stroke fill markers"/><path d="M88 92v8h4v-4h4v-4h-8zm4 8v4h4v-4h-4zm4 4v4h4v-4h-4zm4 4v4h4v-4h-4zm4 4v4h4v-4h-4zm4 4v4h4v-4h-4zm4 4v4h16v-4h4v-4h4v-4h-8v4h-4v4h-12z" style="opacity:1;vector-effect:none;fill:#ff837d;fill-opacity:1;fill-rule:evenodd;stroke:none;paint-order:stroke fill markers"/><path d="M96 92h4v4h-4z" style="opacity:1;vector-effect:none;fill:#56595b;fill-opacity:1;fill-rule:evenodd;stroke:none;paint-order:stroke fill markers"/></svg>

<?xml version="1.0" encoding="UTF-8" standalone="no"?>
<svg
   xmlns:dc="http://purl.org/dc/elements/1.1/"
   xmlns:cc="http://creativecommons.org/ns#"
   xmlns:rdf="http://www.w3.org/1999/02/22-rdf-syntax-ns#"
   xmlns:svg="http://www.w3.org/2000/svg"
   xmlns="http://www.w3.org/2000/svg"
   xmlns:sodipodi="http://sodipodi.sourceforge.net/DTD/sodipodi-0.dtd"
   xmlns:inkscape="http://www.inkscape.org/namespaces/inkscape"
   viewBox="0 0 192 192"
   version="1.1"
   id="svg16"
   sodipodi:docname="wall_kickers.svg"
   inkscape:version="0.92.4 (5da689c313, 2019-01-14)">
  <metadata
     id="metadata20">
    <rdf:RDF>
      <cc:Work
         rdf:about="">
        <dc:format>image/svg+xml</dc:format>
        <dc:type
           rdf:resource="http://purl.org/dc/dcmitype/StillImage" />
        <dc:title />
      </cc:Work>
    </rdf:RDF>
  </metadata>
  <sodipodi:namedview
     pagecolor="#ffffff"
     bordercolor="#666666"
     borderopacity="1"
     objecttolerance="10"
     gridtolerance="10"
     guidetolerance="10"
     inkscape:pageopacity="0"
     inkscape:pageshadow="2"
     inkscape:window-width="1920"
     inkscape:window-height="1017"
     id="namedview18"
     showgrid="true"
     inkscape:zoom="2.4583333"
     inkscape:cx="-4.3641793"
     inkscape:cy="112.33818"
     inkscape:window-x="-8"
     inkscape:window-y="-8"
     inkscape:window-maximized="1"
     inkscape:current-layer="svg16"
     inkscape:snap-global="true">
    <inkscape:grid
       type="xygrid"
       id="grid827"
       spacingx="4"
       spacingy="4" />
  </sodipodi:namedview>
  <defs
     id="defs4">
    <style
       id="style2">.a{fill:none;stroke:#b1b5bd;stroke-linecap:round;stroke-linejoin:round;isolation:isolate;opacity:0.63;}</style>
  </defs>
  <rect
     class="a"
     x="32"
     y="8"
     width="128"
     height="176"
     rx="10"
     id="rect12"
     style="fill:#9abeff;stroke:none;opacity:1" />
  <rect
     style="opacity:1;vector-effect:none;fill:#ba6561;fill-opacity:1;fill-rule:evenodd;stroke:none;paint-order:stroke fill markers"
     id="rect1062"
     width="12"
     height="176"
     x="56"
     y="8" />
  <path
     style="opacity:1;vector-effect:none;fill:#ff837d;fill-opacity:1;fill-rule:evenodd;stroke:none;stroke-width:2.82842708;paint-order:stroke fill markers"
     d="M 42 8 C 36.46 8 32 12.46 32 18 L 32 174 C 32 179.54 36.46 184 42 184 L 64 184 L 64 8 L 42 8 z "
     id="rect840" />
  <path
     style="opacity:1;vector-effect:none;fill:#ba6561;fill-opacity:1;fill-rule:evenodd;stroke:none;paint-order:stroke fill markers"
     d="M 52 8 L 52 16 L 32.199219 16 C 32.068995 16.646157 32 17.31435 32 18 L 32 20 L 40 20 L 40 28 L 32 28 L 32 32 L 52 32 L 52 40 L 32 40 L 32 44 L 40 44 L 40 52 L 32 52 L 32 56 L 52 56 L 52 64 L 32 64 L 32 68 L 40 68 L 40 76 L 32 76 L 32 80 L 52 80 L 52 88 L 32 88 L 32 92 L 40 92 L 40 100 L 32 100 L 32 104 L 52 104 L 52 112 L 32 112 L 32 116 L 40 116 L 40 124 L 32 124 L 32 128 L 52 128 L 52 136 L 32 136 L 32 140 L 40 140 L 40 148 L 32 148 L 32 152 L 52 152 L 52 160 L 32 160 L 32 164 L 40 164 L 40 172 L 32 172 L 32 174 C 32 174.68565 32.068995 175.35384 32.199219 176 L 52 176 L 52 184 L 56 184 L 56 176 L 64 176 L 64 172 L 44 172 L 44 164 L 64 164 L 64 160 L 56 160 L 56 152 L 64 152 L 64 148 L 44 148 L 44 140 L 64 140 L 64 136 L 56 136 L 56 128 L 64 128 L 64 124 L 44 124 L 44 116 L 64 116 L 64 112 L 56 112 L 56 104 L 64 104 L 64 100 L 44 100 L 44 92 L 64 92 L 64 88 L 56 88 L 56 80 L 64 80 L 64 76 L 44 76 L 44 68 L 64 68 L 64 64 L 56 64 L 56 56 L 64 56 L 64 52 L 44 52 L 44 44 L 64 44 L 64 40 L 56 40 L 56 32 L 64 32 L 64 28 L 44 28 L 44 20 L 64 20 L 64 16 L 56 16 L 56 8 L 52 8 z "
     id="rect842" />
  <path
     style="opacity:1;vector-effect:none;fill:#8e6f60;fill-opacity:1;fill-rule:evenodd;stroke:none;paint-order:stroke fill markers"
     d="m 88,136 v 8 h 4 4 v 4 h 4 v 4 h 4 v 4 h 20 v -4 h 4 v -4 h 20 v 4 h 4 v 4 h 8 v -8 -4 h -4 v -4 h -4 v -4 h -28 v 4 h -4 v 4 h -12 v -4 h -8 v -4 z"
     id="rect985"
     inkscape:connector-curvature="0"
     sodipodi:nodetypes="ccccccccccccccccccccccccccccccccc" />
  <path
     style="opacity:1;vector-effect:none;fill:#56595b;fill-opacity:1;fill-rule:evenodd;stroke:none;paint-order:stroke fill markers"
     d="m 92,44 v 4 h -4 v 12 h 4 v 4 H 84 V 60 H 72 v 4 h -4 v 16 h 4 v 4 h 8 v 4 h -4 -8 v 52 h 12 v -4 h 4 v 4 h 20 v -4 h 8 v -4 h 8 v -4 h 8 v -4 h 4 v 8 h 4 v 4 h 4 v 4 h 16 v -4 h 4 v -8 -12 h -4 v -4 h 8 v -4 h 4 v -4 h 4 V 84 h -4 v -4 h -4 V 64 h -4 v -4 h 4 V 48 h -4 v -4 h -12 v 4 h -8 v -4 h -28 v 4 h -8 v -4 z"
     id="rect942"
     inkscape:connector-curvature="0" />
  <path
     style="opacity:1;vector-effect:none;fill:#8e6f60;fill-opacity:1;fill-rule:evenodd;stroke:none;paint-order:stroke fill markers"
     d="M 92 48 L 92 60 L 96 60 L 96 64 L 92 64 L 92 88 L 96 88 L 96 92 L 88 92 L 88 108 L 92 108 L 92 112 L 88 112 L 88 116 L 80 116 L 72 116 L 72 136 L 80 136 L 80 132 L 84 132 L 84 136 L 104 136 L 104 132 L 112 132 L 112 128 L 120 128 L 120 124 L 124 124 L 128 124 L 128 120 L 132 120 L 132 116 L 136 116 L 136 112 L 140 112 L 140 116 L 136 116 L 136 120 L 132 120 L 132 124 L 136 124 L 136 132 L 140 132 L 140 136 L 156 136 L 156 132 L 156 116 L 152 116 L 152 112 L 156 112 L 156 108 L 164 108 L 164 104 L 168 104 L 168 84 L 164 84 L 164 80 L 160 80 L 160 64 L 156 64 L 156 60 L 152 60 L 152 56 L 148 56 L 148 52 L 140 52 L 140 48 L 112 48 L 112 52 L 104 52 L 104 48 L 92 48 z M 148 52 L 152 52 L 152 56 L 156 56 L 156 60 L 160 60 L 160 52 L 160 48 L 148 48 L 148 52 z "
     id="rect1004" />
  <rect
     style="opacity:1;vector-effect:none;fill:#fcecdc;fill-opacity:1;fill-rule:evenodd;stroke:none;paint-order:stroke fill markers"
     id="rect1064"
     width="12"
     height="16"
     x="72"
     y="64" />
  <rect
     style="opacity:1;vector-effect:none;fill:#fcecdc;fill-opacity:1;fill-rule:evenodd;stroke:none;paint-order:stroke fill markers"
     id="rect1066"
     width="8"
     height="16"
     x="80"
     y="68" />
  <rect
     style="opacity:1;vector-effect:none;fill:#8e6f60;fill-opacity:1;fill-rule:evenodd;stroke:none;paint-order:stroke fill markers"
     id="rect1068"
     width="4"
     height="4"
     x="84"
     y="88" />
  <rect
     style="opacity:1;vector-effect:none;fill:#fcecdc;fill-opacity:1;fill-rule:evenodd;stroke:none;paint-order:stroke fill markers"
     id="rect1072"
     width="8"
     height="16"
     x="72"
     y="92" />
  <rect
     style="opacity:1;vector-effect:none;fill:#fcecdc;fill-opacity:1;fill-rule:evenodd;stroke:none;paint-order:stroke fill markers"
     id="rect1074"
     width="4"
     height="12"
     x="80"
     y="96" />
  <rect
     style="opacity:1;vector-effect:none;fill:#8e6f60;fill-opacity:1;fill-rule:evenodd;stroke:none;paint-order:stroke fill markers"
     id="rect1077"
     width="4"
     height="16"
     x="84"
     y="68" />
  <rect
     style="opacity:1;vector-effect:none;fill:#8e6f60;fill-opacity:1;fill-rule:evenodd;stroke:none;paint-order:stroke fill markers"
     id="rect1079"
     width="4"
     height="4"
     x="72"
     y="68" />
  <rect
     style="opacity:1;vector-effect:none;fill:#d3b69a;fill-opacity:1;fill-rule:evenodd;stroke:none;paint-order:stroke fill markers"
     id="rect1081"
     width="4"
     height="20"
     x="80"
     y="64" />
  <rect
     style="opacity:1;vector-effect:none;fill:#d3b69a;fill-opacity:1;fill-rule:evenodd;stroke:none;paint-order:stroke fill markers"
     id="rect1083"
     width="8"
     height="4"
     x="76"
     y="76" />
  <rect
     style="opacity:1;vector-effect:none;fill:#d3b69a;fill-opacity:1;fill-rule:evenodd;stroke:none;paint-order:stroke fill markers"
     id="rect1087"
     width="4"
     height="4"
     x="80"
     y="104" />
  <rect
     style="opacity:1;vector-effect:none;fill:#8e6f60;fill-opacity:1;fill-rule:evenodd;stroke:none;paint-order:stroke fill markers"
     id="rect1089"
     width="4"
     height="4"
     x="72"
     y="96" />
  <rect
     style="opacity:1;vector-effect:none;fill:#8e6f60;fill-opacity:1;fill-rule:evenodd;stroke:none;paint-order:stroke fill markers"
     id="rect1091"
     width="4"
     height="4"
     x="72"
     y="104" />
  <rect
     style="opacity:1;vector-effect:none;fill:#ffb0ac;fill-opacity:1;fill-rule:evenodd;stroke:none;paint-order:stroke fill markers"
     id="rect1093"
     width="4"
     height="8"
     x="96"
     y="52" />
  <rect
     style="opacity:1;vector-effect:none;fill:#ffb0ac;fill-opacity:1;fill-rule:evenodd;stroke:none;paint-order:stroke fill markers"
     id="rect1095"
     width="8"
     height="4"
     x="96"
     y="52" />
  <rect
     style="opacity:1;vector-effect:none;fill:#ffb0ac;fill-opacity:1;fill-rule:evenodd;stroke:none;paint-order:stroke fill markers"
     id="rect1097"
     width="4"
     height="4"
     x="152"
     y="52" />
  <path
     style="opacity:1;vector-effect:none;fill:#d3b69a;fill-opacity:1;fill-rule:evenodd;stroke:none;paint-order:stroke fill markers"
     d="M 108 52 L 108 56 L 104 56 L 104 60 L 100 60 L 100 64 L 96 64 L 96 88 L 100 88 L 100 92 L 104 92 L 104 100 L 108 100 L 108 104 L 112 104 L 112 108 L 128 108 L 128 96 L 124 96 L 120 96 L 120 88 L 160 88 L 160 64 L 156 64 L 156 60 L 144 60 L 144 56 L 148 56 L 148 52 L 144 52 L 136 52 L 108 52 z "
     id="rect1099" />
  <rect
     style="opacity:1;vector-effect:none;fill:#d3b69a;fill-opacity:1;fill-rule:evenodd;stroke:none;paint-order:stroke fill markers"
     id="rect1111"
     width="4"
     height="4"
     x="160"
     y="80" />
  <path
     style="opacity:1;vector-effect:none;fill:#fcecdc;fill-opacity:1;fill-rule:evenodd;stroke:none;stroke-width:0.96076894;paint-order:stroke fill markers"
     d="M 108 84 L 108 88 L 104 88 L 104 96 L 108 96 L 108 100 L 112 100 L 112 104 L 116 104 L 116 108 L 164 108 L 164 104 L 168 104 L 168 84 L 164 84 L 152 84 L 136 84 L 120 84 L 108 84 z "
     id="rect1121" />
  <rect
     style="opacity:1;vector-effect:none;fill:#56595b;fill-opacity:1;fill-rule:evenodd;stroke:none;paint-order:stroke fill markers"
     id="rect1134"
     width="8"
     height="20"
     x="148"
     y="64" />
  <rect
     style="opacity:1;vector-effect:none;fill:#ffffff;fill-opacity:1;fill-rule:evenodd;stroke:none;paint-order:stroke fill markers"
     id="rect1136"
     width="4"
     height="4"
     x="148"
     y="68" />
  <path
     style="opacity:1;vector-effect:none;fill:#d3b69a;fill-opacity:1;fill-rule:evenodd;stroke:none;paint-order:stroke fill markers"
     d="M 140 124 L 140 128 L 136 128 L 136 132 L 140 132 L 140 136 L 152 136 L 152 132 L 156 132 L 156 128 L 152 128 L 152 124 L 140 124 z "
     id="rect1138" />
  <path
     style="opacity:1;vector-effect:none;fill:#fcecdc;fill-opacity:1;fill-rule:evenodd;stroke:none;paint-order:stroke fill markers"
     d="M 140 128 L 140 136 L 144 136 L 152 136 L 156 136 L 156 132 L 152 132 L 152 128 L 140 128 z "
     id="rect1143" />
  <rect
     style="opacity:1;vector-effect:none;fill:#8e6f60;fill-opacity:1;fill-rule:evenodd;stroke:none;paint-order:stroke fill markers"
     id="rect1148"
     width="4"
     height="4"
     x="148"
     y="132" />
  <path
     style="opacity:1;vector-effect:none;fill:#d3b69a;fill-opacity:1;fill-rule:evenodd;stroke:none;paint-order:stroke fill markers"
     d="M 80 116 L 80 128 L 80 132 L 84 132 L 84 128 L 88 128 L 88 116 L 84 116 L 80 116 z "
     id="rect1155" />
  <path
     style="opacity:1;vector-effect:none;fill:#fcecdc;fill-opacity:1;fill-rule:evenodd;stroke:none;paint-order:stroke fill markers"
     d="M 72 116 L 72 136 L 80 136 L 80 128 L 84 128 L 84 116 L 80 116 L 76 116 L 72 116 z "
     id="rect1150" />
  <rect
     style="opacity:1;vector-effect:none;fill:#56595b;fill-opacity:1;fill-rule:evenodd;stroke:none;paint-order:stroke fill markers"
     id="rect1160"
     width="8"
     height="20"
     x="120"
     y="64" />
  <rect
     style="opacity:1;vector-effect:none;fill:#ffffff;fill-opacity:1;fill-rule:evenodd;stroke:none;paint-order:stroke fill markers"
     id="rect1162"
     width="4"
     height="4"
     x="120"
     y="68" />
  <rect
     style="opacity:1;vector-effect:none;fill:#8e6f60;fill-opacity:1;fill-rule:evenodd;stroke:none;paint-order:stroke fill markers"
     id="rect1164"
     width="8"
     height="4"
     x="120"
     y="56" />
  <rect
     style="opacity:1;vector-effect:none;fill:#8e6f60;fill-opacity:1;fill-rule:evenodd;stroke:none;paint-order:stroke fill markers"
     id="rect1166"
     width="4"
     height="4"
     x="116"
     y="60" />
  <rect
     style="opacity:1;vector-effect:none;fill:#ffb0ac;fill-opacity:1;fill-rule:evenodd;stroke:none;paint-order:stroke fill markers"
     id="rect1168"
     width="16"
     height="8"
     x="140"
     y="84" />
  <rect
     style="opacity:1;vector-effect:none;fill:#ff837d;fill-opacity:1;fill-rule:evenodd;stroke:none;paint-order:stroke fill markers"
     id="rect1170"
     width="4"
     height="4"
     x="140"
     y="88" />
  <rect
     style="opacity:1;vector-effect:none;fill:#ff837d;fill-opacity:1;fill-rule:evenodd;stroke:none;paint-order:stroke fill markers"
     id="rect1172"
     width="4"
     height="4"
     x="152"
     y="88" />
  <rect
     style="opacity:1;vector-effect:none;fill:#8e6f60;fill-opacity:1;fill-rule:evenodd;stroke:none;paint-order:stroke fill markers"
     id="rect1174"
     width="44"
     height="4"
     x="124"
     y="100" />
  <rect
     style="opacity:1;vector-effect:none;fill:#d3b69a;fill-opacity:1;fill-rule:evenodd;stroke:none;paint-order:stroke fill markers"
     id="rect1178"
     width="12"
     height="4"
     x="116"
     y="92" />
  <rect
     style="opacity:1;vector-effect:none;fill:#8e6f60;fill-opacity:1;fill-rule:evenodd;stroke:none;paint-order:stroke fill markers"
     id="rect1176"
     width="4"
     height="8"
     x="120"
     y="92" />
  <rect
     style="opacity:1;vector-effect:none;fill:#8e6f60;fill-opacity:1;fill-rule:evenodd;stroke:none;paint-order:stroke fill markers"
     id="rect1180"
     width="4"
     height="4"
     x="72"
     y="120" />
  <rect
     style="opacity:1;vector-effect:none;fill:#8e6f60;fill-opacity:1;fill-rule:evenodd;stroke:none;paint-order:stroke fill markers"
     id="rect1182"
     width="4"
     height="4"
     x="72"
     y="128" />
  <path
     style="opacity:1;vector-effect:none;fill:#ffb0ac;fill-opacity:1;fill-rule:evenodd;stroke:none;paint-order:stroke fill markers"
     d="M 88 92 L 88 100 L 92 100 L 92 104 L 96 104 L 96 108 L 100 108 L 100 112 L 104 112 L 104 116 L 108 116 L 108 120 L 112 120 L 112 124 L 128 124 L 128 120 L 132 120 L 132 116 L 136 116 L 136 112 L 128 112 L 116 112 L 112 112 L 112 108 L 108 108 L 108 104 L 104 104 L 104 100 L 100 100 L 100 96 L 96 96 L 96 92 L 88 92 z "
     id="rect1184" />
  <path
     style="opacity:1;vector-effect:none;fill:#ff837d;fill-opacity:1;fill-rule:evenodd;stroke:none;paint-order:stroke fill markers"
     d="M 88 92 L 88 96 L 88 100 L 92 100 L 92 96 L 96 96 L 96 92 L 92 92 L 88 92 z M 92 100 L 92 104 L 96 104 L 96 100 L 92 100 z M 96 104 L 96 108 L 100 108 L 100 104 L 96 104 z M 100 108 L 100 112 L 104 112 L 104 108 L 100 108 z M 104 112 L 104 116 L 108 116 L 108 112 L 104 112 z M 108 116 L 108 120 L 112 120 L 112 116 L 108 116 z M 112 120 L 112 124 L 128 124 L 128 120 L 132 120 L 132 116 L 136 116 L 136 112 L 128 112 L 128 116 L 124 116 L 124 120 L 112 120 z "
     id="rect1208" />
  <rect
     style="opacity:1;vector-effect:none;fill:#56595b;fill-opacity:1;fill-rule:evenodd;stroke:none;paint-order:stroke fill markers"
     id="rect873"
     width="4"
     height="4"
     x="96"
     y="92" />
</svg>
